-----BEGIN PGP MESSAGE-----

hQEMAyxhL24jGi0VAQf/WnhcMfG5r0y5AKwAQdm3TeBcUHbaqov3m1z0KSZgEIgi
M6pw0tqGElSWIdjT9wESnk8hr9RpwyoEQnVt8SFZQoFhwyLJQNCq58S4UnDOvxRm
4KSa/dYsgS4jEr5IwkF9wAH+UE99otEZtPm9plyjnqmfoJjz861Z8JTx8fzYrLzQ
khsqKNQf5TLuLoyMEmF7EOp9B7BxA3XRaUhjpWw4DaEdIDsZGX8vp/jv2iguYs1H
b3gHL9g4vBeudLAsvuDibFFDaRKpTUH0TtAVg5OyIM6thvQRFMDgHl0LVBUuBWWO
aT7D4KV+idY+c6gAVH1VquUQq0VGBeXFcQkTGMnipNLqAWEy/heHEuvR9N1XByk6
DzHE6OnK8oRNXODk6UMzttwYiAVfQ6HIMrcnPU7mot2o1tQLqqFBamxMFcpQQ3Kp
/sd/v5Nx3pEvxBoWRS5X7NnvJ/bMavuNjkp2H7M5EezrwNzMTpvyqFSg+y3vpCUv
+YPkSPntvpza4gHCA0f+XcabP14htUlrM25sDNBvZuquTh9CPi1M7nn5xaXUpdJY
4LPAW7xxM+8HuxScWhrBcWs15vdu2l/C011UiSmocFcZJGJF01j9mP/e5shZ4gDm
2ezYfXt70nOVKKi1a9AG+CaP9YJFfOyCOB/zqkpBHAbPr1P3rykeRya7QU7PSDOv
5SnIuJcB7eEPLaN9Ju9XwhIGdBQ4y224cDIHKI/O+UTiCfv7T0RqBmnQKnwy+92d
9PcsxuG6dIcvMrIzRJC/98yxdR3SxX/42qMTpl7XAeo/b1zrCRNSXRPxjtPY6r7s
bOWqzKZQQ5oz2dnuLygilgzzlunbOKmC6EhEAl83na3rsB/gzLHF846c3uZcq0K7
jSzEamJuKgMtvgB4AnzIEccfBPV7U27hFbBoAqJBQUg6ADmtwOJ8Ywt0DExnhK17
MtSRAH+yfs0wSUZJNqGHVh7bOVcOC9fhUUuEn36cMYk5/wZxlaZJ29Uz1hjS13FR
ihqa/OVuOwFmYlXknAMa/tBhKcu/9bDDvKsV4uXz0JcquN/0KFK22Kt574XNabyc
xm9iSYZ7syrdUc6hAz53wbch0v2D9PFSKRWnnBQtXwuEP4WGhA3nqEgBL3jk/xb7
ROmhMy/Gf5wT+ycg9fTQ56o3GV7aTBu0NW++pAobTxzSPQ71MSARCwl2sOzWRHR7
xomgCfipzzmbOVAFKtb9L/d2Npu7HBOdUF2GoTPOWOmTe7rPw99QWJG8AQXRML9J
yXo8YwcIwU/10d85jCBd7jf5el+QPL+BSbu8FkYg8ZpSu9X+CQyVGH8l1o9LePUS
U1ie7Fz+M1q83AINsaelht5UYzobaY2jabEqpurLe8KjqligINtgALtoYC5Gd1w2
l4AmhL7VZehYsZVgpYejeNzhj7r9l1k45uxeVfk8WZkL0jwFC305YJO9RX//hBYB
DXiiCFgLBcPI5xOWxXWPZZYmBFSQFxz4EvdpRNOVi7U0WuFhxhjseZbbYVwkI6Vu
doqzwVgLsUwMEscNMIrUiFqFV6fgaAxKgEKoD1rSJXYlWNSkSMKBVeuVcOclmQH8
lQmfPUsdn5XyF55vv6vI7asxfiAeOsOMQ7xNzEti++W8H1NIK5N3TdHRZk1G3L9p
hnp+JHRtrXRRG8Kff3JzB+k6pTLZUZBinSNsYsF6FUMfB8mEwQzTdR/8l/hEf/XV
TuqWZwKk1/8YoRcOLBJQ7YYEVW3dnzZaGBiyHUOrecDm+e18C2lkii709JPizhb9
qeAOEgicDOFeUTNpv93bISwm+2A9lgi9CLKI3pgF0Ff1h1hZDkBJP8eQsyJPmq9e
VrGW/2rgHACCI31W/4QRwb3VJ+rzd4RpJQvxS1ICGzB9FsRsS3VRbfL/cW6HLLDN
+PEb1kMtzutza49W6RFMJROF3aWzsLXkDWEt4xR285hn6kI6vhX4dc+5c/kDLM8u
XBDH8V3+gSDF1qLQhaj2MlYpBnd9tzMFQIi87jvHf/UuipbXlrhh9rl5x+84qu+c
lLzJ21rSVBGDtcdSlMOraUZk633T8huEhYpjW4vvSmlGtBNr8m0MjAPujhh/iUPC
yjPjGPmx76u+gF+cn7TkMymxQeE6Rdft5nqguurvX/XwlpLDVW7AaI4yhZYzMssy
iZ4KSivSfW/IQLseWztGuQ3zq1udXk3aloR4EtITVLYPidCdahHZiBA/0FAHw3ZM
XZzpaPupFZl94g27y3z+NmGF8+kQZrxA7s3IgmTszKxV1qB/4wOaUCmycFxv8HOT
LIMLdiyokjNLnsaMOlcS2a9P0I2fjKgU3pAn5uLpfCQTjuf25kf3iNJecOUFacHB
swHUk8pNOLnnlj3jlqrX9NhzY1V+yBHiHXqsqdwusGdeR4ZoMllGrKKNacXHmT2z
zGlluaAfpFIXwN2KN5Z6uvhUrRygNwZ3/x4eHg0mY472PuIp1JG1ScNb/3NW6sta
S1e76c/eqwRFGgL1JTJqJR6H4WB4adpBlVF6jbAdevM46Rhsw7FC+yDbnsxI7NuY
NSM1iBM2WaXTrf/4FgXVaPBfEp1YkXD5+B8CtynTT2vlWqEEExIS2BbkZdIUYAIB
xwSxpmrWwqYHJRurpYUQSkE+enlCF/3NbH3uotXtWEONxAVuFDP65V6JnbeNYsoL
GaWOgdCrkLSJ6jMFF41L0JuaY91Vu4zLViAvIfkizJbUnobBg7O+vo2csFgwPAJC
pp8VhBSf9+++K+KzrySWqVa844smHQqAEqzyYT97kl0qVHkI1roukhp8Ge2+1aTi
H/+7nNam1fuwvUtKRic0oYU5/irQfCN1bqDK6JqMyisdfkdv6zbvutIYR9Q9neTO
4NIxGQ3cFKXNgOdPZage8Wwc+yHuoEfkyOsgBhhUanjJzuINvgSNKsD8rHlPiAPl
VJyHhfaWWN91qgiBjlQUXiQASaBF0XGfVl4gsbWhLOw3N6tMoWyi4vTSVMuuhLO6
tw19c6mjVgieJFMgIVzUGMbgFOM0tSdQiCpD1XfLllcFMKUOdnGl1di5ilg8FNl9
ZedIX/CgGsbMi+oeWCTp2HPSwBaK99VWf6Teyc6CL6de9xL5vudbpoKynaCZpzT5
liXELOF4mMd/OT5wNarF4heWfR6RsVMePzSJM0oQrAjionjfbprHfbcwRVESG+Ft
Unk56SwzbBdcMZDVNUp0AW8E3kmvkI6WKraOaUkCkjV/iT6k06vClaL8XVqzWNK9
ynWdumKfuLJ98a3lCgcuiZqKKNbB1Un+3sNtuY6pKFVHQW8EjZbXVhnH8vKpKqRU
f8JP8Q5U4b5gUIe2+irkiiH4ZDlGxIVAkXBSVqlxTe4n9dCZ6n1383ux
=H8eL
-----END PGP MESSAGE-----
